outputs/icons/device/restart_alt_sharp.svg

<svg width="1200" height="1200" viewBox="0 0 1200 1200" fill="none" xmlns="http://www.w3.org/2000/svg"><g clip-path="url(#clip0_133_48)"><path fill-rule="evenodd" d="M600 100V250C821 250 1000 429 1000 650C1000 854 847.5 1022 650 1046.5V945.5C791.5 921.5 900 798.5 900 650C900 484.5 765.5 350 600 350V500L400 300L600 100ZM388 438.005C333.5 492.505 300 567.505 300 650.005C300 798.505 408.5 921.505 550 945.505V1046.505C352.5 1022.005 200 854.005 200 650.005C200 539.505 245 439.504 317 367.005L388 438.005Z" fill="#1D1E23"/></g><defs><clipPath id="clip0_133_48"><path width="24" fill="white" d="M0 0H1200V1200H0V0z"/></clipPath></defs></svg>

<svg xmlns="http://www.w3.org/2000/svg" width="1200" height="1200" fill="none"><g fill="#000" clip-path="url(#a)"><path d="M600 100v150c221 0 400 179 400 400 0 204-152.5 372-350 396.5v-101c141.5-24 250-147 250-295.5 0-165.5-134.5-300-300-300v150L400 300zM388 438.005c-54.5 54.5-88 129.5-88 212 0 148.5 108.5 271.5 250 295.5v101c-197.5-24.5-350-192.5-350-396.5 0-110.5 45-210.501 117-283z"/></g><defs><clipPath id="a"><path fill="#fff" d="M0 0h1200v1200H0z"/></clipPath></defs></svg>
